X: 33218
T: Ptarmigan Flushed, The
R: slide
M: 12/8
K: Gmajor
|:GG/F/E|D3 G2 B def g3|D2 G B2 d cAF GFE|
D2 G D2 B dd/e/f g3|dBG dBg cAF:|
|:GB/c/d|g3 f2 a gfe d3|e2 f gdB cAG FF/G/A|
[1 g2 a f2 a gg/f/e dB/c/d|e2 f gdB cAF:|
[2 D2 B c2 e def g3|dBG dBg cAF||

